CSETWebApi/CSETWeb_Api/CSETWeb_ApiCore/Diagram/src/main/webapp/img/lib/cumulus/server_bare_metal.svg

<svg xmlns="http://www.w3.org/2000/svg" viewBox="0 0 48 10"><rect x=".5" y=".5" width="47" height="9" rx="1.5" fill="#fff"/><path d="M46 1a1 1 0 0 1 1 1v6a1 1 0 0 1-1 1H2a1 1 0 0 1-1-1V2a1 1 0 0 1 1-1h44m0-1H2a2 2 0 0 0-2 2v6a2 2 0 0 0 2 2h44a2 2 0 0 0 2-2V2a2 2 0 0 0-2-2zM32 4h10v2H32z" fill="#8c9aa6"/></svg>

<?xml version="1.0" encoding="UTF-8" standalone="no"?>
<svg
   xmlns:dc="http://purl.org/dc/elements/1.1/"
   xmlns:cc="http://creativecommons.org/ns#"
   xmlns:rdf="http://www.w3.org/1999/02/22-rdf-syntax-ns#"
   xmlns:svg="http://www.w3.org/2000/svg"
   xmlns="http://www.w3.org/2000/svg"
   xmlns:sodipodi="http://sodipodi.sourceforge.net/DTD/sodipodi-0.dtd"
   xmlns:inkscape="http://www.inkscape.org/namespaces/inkscape"
   viewBox="0 0 48 10"
   version="1.1"
   id="svg1030"
   sodipodi:docname="server_bare_metal.svg"
   inkscape:version="0.92.3 (2405546, 2018-03-11)">
  <metadata
     id="metadata1034">
    <rdf:RDF>
      <cc:Work
         rdf:about="">
        <dc:format>image/svg+xml</dc:format>
        <dc:type
           rdf:resource="http://purl.org/dc/dcmitype/StillImage" />
        <dc:title>cumulus-networks-netq-server</dc:title>
      </cc:Work>
    </rdf:RDF>
  </metadata>
  <sodipodi:namedview
     pagecolor="#ffffff"
     bordercolor="#666666"
     borderopacity="1"
     objecttolerance="10"
     gridtolerance="10"
     guidetolerance="10"
     inkscape:pageopacity="0"
     inkscape:pageshadow="2"
     inkscape:window-width="1920"
     inkscape:window-height="1017"
     id="namedview1032"
     showgrid="false"
     inkscape:zoom="30.354167"
     inkscape:cx="24"
     inkscape:cy="5"
     inkscape:window-x="-8"
     inkscape:window-y="-8"
     inkscape:window-maximized="1"
     inkscape:current-layer="svg1030" />
  <defs
     id="defs1014">
    <style
       id="style1012">.cls-1{fill:#fff;}.cls-2{fill:#8c9aa6;}.cls-3{fill:#83389b;}.cls-4{fill:none;stroke:#8c9aa6;stroke-linejoin:round;}</style>
  </defs>
  <title
     id="title1016">cumulus-networks-netq-server</title>
  <rect
     class="cls-1"
     x="0.5"
     y="0.5"
     width="47"
     height="9"
     rx="1.5"
     ry="1.5"
     id="rect1018"
     style="fill:#ffffff" />
  <path
     class="cls-2"
     d="m 46,1 a 1,1 0 0 1 1,1 V 8 A 1,1 0 0 1 46,9 H 2 A 1,1 0 0 1 1,8 V 2 A 1,1 0 0 1 2,1 H 46 M 46,0 H 2 A 2,2 0 0 0 0,2 v 6 a 2,2 0 0 0 2,2 H 46 A 2,2 0 0 0 48,8 V 2 A 2,2 0 0 0 46,0 Z"
     id="path1020"
     inkscape:connector-curvature="0"
     style="fill:#8c9aa6" />
  <rect
     class="cls-2"
     x="32"
     y="4"
     width="10"
     height="2"
     id="rect1022"
     style="fill:#8c9aa6" />
</svg>
